src/icon-mask.svg

<svg fill="none" height="200" viewBox="0 0 200 200" width="200" xmlns="http://www.w3.org/2000/svg" xmlns:xlink="http://www.w3.org/1999/xlink"><clipPath id="a"><path d="m0 0h135v134h-135z" transform="matrix(-.00000004 -1 -1 .00000004 167 167)"/></clipPath><g clip-path="url(#a)"><path d="m71.2857 51.2857c0 8.963-6.1257 16.4459-14.3571 18.6011v24.7918c0 5.318 4.2928 9.6424 9.5714 9.6424h28.7143v-34.4342c-8.2314-2.1552-14.3572-9.6381-14.3572-18.6011 0-10.6361 8.5856-19.2857 19.1429-19.2857 10.557 0 19.143 8.6496 19.143 19.2857 0 8.963-6.126 16.4459-14.357 18.6011v34.4342h28.714c10.557 0 19.143 8.65 19.143 19.286v5.506c8.231 2.155 14.357 9.638 14.357 18.601 0 10.636-8.586 19.286-19.143 19.286s-19.143-8.65-19.143-19.286c0-8.963 6.126-16.446 14.357-18.601v-5.506c0-5.318-4.292-9.643-9.571-9.643h-67c-10.5573 0-19.1429-8.649-19.1429-19.2854v-24.7918c-8.2314-2.1552-14.3571-9.638-14.3571-18.6011 0-10.6361 8.5856-19.2857 19.1429-19.2857 10.5572 0 19.1428 8.6496 19.1428 19.2857zm38.2853 0c0-5.318-4.292-9.6428-9.571-9.6428-5.2786 0-9.5714 4.3248-9.5714 9.6428s4.2928 9.6429 9.5714 9.6429c5.279 0 9.571-4.3249 9.571-9.6429zm28.715 96.4283c0 5.318 4.293 9.643 9.571 9.643 5.279 0 9.572-4.325 9.572-9.643s-4.293-9.643-9.572-9.643-9.571 4.325-9.571 9.643zm-95.7146-96.4283c0 5.3181 4.2928 9.6429 9.5715 9.6429 5.2786 0 9.5714-4.3248 9.5714-9.6429 0-5.318-4.2928-9.6428-9.5714-9.6428-5.2787 0-9.5715 4.3248-9.5715 9.6428z" fill="#fff"/></g></svg>

<svg width="200" height="200" viewBox="0 0 200 200" fill="none" xmlns="http://www.w3.org/2000/svg">
<g clip-path="url(#clip0_2:20)">
<path d="M71.2857 51.2857C71.2857 60.2487 65.16 67.7316 56.9286 69.8868L56.9286 94.6786C56.9286 99.9966 61.2214 104.321 66.5 104.321L95.2143 104.321L95.2143 69.8868C86.9829 67.7316 80.8571 60.2487 80.8571 51.2857C80.8571 40.6496 89.4427 32 100 32C110.557 32 119.143 40.6496 119.143 51.2857C119.143 60.2487 113.017 67.7316 104.786 69.8868L104.786 104.321L133.5 104.321C144.057 104.321 152.643 112.971 152.643 123.607L152.643 129.113C160.874 131.268 167 138.751 167 147.714C167 158.35 158.414 167 147.857 167C137.3 167 128.714 158.35 128.714 147.714C128.714 138.751 134.84 131.268 143.071 129.113L143.071 123.607C143.071 118.289 138.779 113.964 133.5 113.964L66.5 113.964C55.9427 113.964 47.3571 105.315 47.3571 94.6786L47.3571 69.8868C39.1257 67.7316 33 60.2488 33 51.2857C33 40.6496 41.5856 32 52.1429 32C62.7001 32 71.2857 40.6496 71.2857 51.2857ZM109.571 51.2857C109.571 45.9677 105.279 41.6429 100 41.6429C94.7214 41.6429 90.4286 45.9677 90.4286 51.2857C90.4286 56.6037 94.7214 60.9286 100 60.9286C105.279 60.9286 109.571 56.6037 109.571 51.2857ZM138.286 147.714C138.286 153.032 142.579 157.357 147.857 157.357C153.136 157.357 157.429 153.032 157.429 147.714C157.429 142.396 153.136 138.071 147.857 138.071C142.578 138.071 138.286 142.396 138.286 147.714ZM42.5714 51.2857C42.5714 56.6038 46.8642 60.9286 52.1429 60.9286C57.4215 60.9286 61.7143 56.6038 61.7143 51.2857C61.7143 45.9677 57.4215 41.6429 52.1429 41.6429C46.8642 41.6429 42.5714 45.9677 42.5714 51.2857Z" fill="white"/>
</g>
<defs>
<clipPath id="clip0_2:20">
<rect width="135" height="134" fill="white" transform="matrix(-4.37114e-08 -1 -1 4.37114e-08 167 167)"/>
</clipPath>
</defs>
</svg>
